lib/assets/more.svg

<svg width="48" height="48" viewBox="0 0 48 48" fill="none" xmlns="http://www.w3.org/2000/svg">
<path d="M4 21.6C4 20.7163 4.71634 20 5.6 20H10.4C11.2837 20 12 20.7163 12 21.6V26.4C12 27.2837 11.2837 28 10.4 28H5.6C4.71634 28 4 27.2837 4 26.4V21.6Z" fill="#EBEBEB"/>
<path d="M20 21.6C20 20.7163 20.7163 20 21.6 20H26.4C27.2837 20 28 20.7163 28 21.6V26.4C28 27.2837 27.2837 28 26.4 28H21.6C20.7163 28 20 27.2837 20 26.4V21.6Z" fill="#EBEBEB"/>
<path d="M36 21.6C36 20.7163 36.7163 20 37.6 20H42.4C43.2837 20 44 20.7163 44 21.6V26.4C44 27.2837 43.2837 28 42.4 28H37.6C36.7163 28 36 27.2837 36 26.4V21.6Z" fill="#EBEBEB"/>
</svg>

<svg width="48" height="48" viewBox="0 0 48 48" fill="none" xmlns="http://www.w3.org/2000/svg"><path d="M4 21.6A1.6 1.6 0 0 1 5.6 20h4.8a1.6 1.6 0 0 1 1.6 1.6v4.8a1.6 1.6 0 0 1-1.6 1.6H5.6A1.6 1.6 0 0 1 4 26.4v-4.8ZM20 21.6a1.6 1.6 0 0 1 1.6-1.6h4.8a1.6 1.6 0 0 1 1.6 1.6v4.8a1.6 1.6 0 0 1-1.6 1.6h-4.8a1.6 1.6 0 0 1-1.6-1.6v-4.8ZM36 21.6a1.6 1.6 0 0 1 1.6-1.6h4.8a1.6 1.6 0 0 1 1.6 1.6v4.8a1.6 1.6 0 0 1-1.6 1.6h-4.8a1.6 1.6 0 0 1-1.6-1.6v-4.8Z" fill="#EBEBEB"/></svg>
